icons/server-environment.svg

<svg xmlns="http://www.w3.org/2000/svg" viewBox="0 0 24 24"><path fill="#64b5f6" d="M4 1h16a1 1 0 0 1 1 1v4a1 1 0 0 1-1 1H4a1 1 0 0 1-1-1V2a1 1 0 0 1 1-1m0 8h16a1 1 0 0 1 1 1v4a1 1 0 0 1-1 1H4a1 1 0 0 1-1-1v-4a1 1 0 0 1 1-1m0 8h16a1 1 0 0 1 1 1v4a1 1 0 0 1-1 1H4a1 1 0 0 1-1-1v-4a1 1 0 0 1 1-1M9 5h1V3H9zm0 8h1v-2H9zm0 8h1v-2H9zM5 3v2h2V3zm0 8v2h2v-2zm0 8v2h2v-2z"/></svg>

<!--
  - The MIT License (MIT)
  -
  - Copyright (c) 2015-2024 Elior "Mallowigi" Boukhobza
  -
  - Permission is hereby granted, free of charge, to any person obtaining a copy
  - of this software and associated documentation files (the "Software"), to deal
  - in the Software without restriction, including without limitation the rights
  - to use, copy, modify, merge, publish, distribute, sublicense, and/or sell
  - copies of the Software, and to permit persons to whom the Software is
  - furnished to do so, subject to the following conditions:
  -
  - The above copyright notice and this permission notice shall be included in all
  - copies or substantial portions of the Software.
  -
  - THE SOFTWARE IS PROVIDED "AS IS", WITHOUT WARRANTY OF ANY KIND, EXPRESS OR
  - IMPLIED, INCLUDING BUT NOT LIMITED TO THE WARRANTIES OF MERCHANTABILITY,
  - FITNESS FOR A PARTICULAR PURPOSE AND NONINFRINGEMENT. IN NO EVENT SHALL THE
  - AUTHORS OR COPYRIGHT HOLDERS BE LIABLE FOR ANY CLAIM, DAMAGES OR OTHER
  - LIABILITY, WHETHER IN AN ACTION OF CONTRACT, TORT OR OTHERWISE, ARISING FROM,
  - OUT OF OR IN CONNECTION WITH THE SOFTWARE OR THE USE OR OTHER DEALINGS IN THE
  - SOFTWARE.
  -
  -->


<svg xmlns="http://www.w3.org/2000/svg" version="1.1" width="16px" height="16px" viewBox="0 0 24 24">
  <path fill="#64B5F6"
        d="M4,1H20A1,1 0 0,1 21,2V6A1,1 0 0,1 20,7H4A1,1 0 0,1 3,6V2A1,1 0 0,1 4,1M4,9H20A1,1 0 0,1 21,10V14A1,1 0 0,1 20,15H4A1,1 0 0,1 3,14V10A1,1 0 0,1 4,9M4,17H20A1,1 0 0,1 21,18V22A1,1 0 0,1 20,23H4A1,1 0 0,1 3,22V18A1,1 0 0,1 4,17M9,5H10V3H9V5M9,13H10V11H9V13M9,21H10V19H9V21M5,3V5H7V3H5M5,11V13H7V11H5M5,19V21H7V19H5Z"/>
</svg>
